X: 2062
T: Marry Ketty    Strathspey
%R: strathspey
B: Niel Gow & Sons "A Second Collection of Strathspey Reels, etc." v.2 p.6 #2
Z: 2022 John Chambers <jc:trillian.mit.edu>
M: C
L: 1/8
K: G
% - - - - - - - - - -
V: 1 staves=2
B |\
G<G TG2 TB>ABd | G<G G>c B/c/d A>B | G<G G<G TB>ABd | (e/f/g)d<g B<gA :| c | Bd- Tde/f/ gdTe>d | Bd Tde/f/ gBA>c |
Bd- Tde/f/ gdTe>d | c<aB<g B<gA>c || Bd- Tde/f/ gdTe>d | Bd- Tde/f/ gBA>c | Bd- de/f/ (g/f/g/a/) gd | c<aB<g B<gA |]
% - - - - - - - - - -
% Voice 2 preserves the staff layout in the book.
V: 2 clef=bass middle=d
z | g2g2 g2g2 | g2g2 d'2d2 | g2g2 g2g2 | c'2g2 d'2d :| z | g2g2 g2c'2 | b2g2 g2d2 |
g2g2 g2g2 | c'2g2 d'2d2 || g2g2 g2g2 | g2g2 g2d2 | g2g2 g2g2 | c'2g2 d'2d |]


